X: 654
T: Erkilet Güzeli...
C: (Anonim)
O: Turkey
F: http://compmusic.upf.edu/node/140
N: hicaz--turku--nimsofyan--erkilet_guzeli--
N: makam= hicaz
N: form= turku
N: usul= nimsofyan = 2/4
M: 2/4
L: 1/16
K: C _7/8B ^f ^c 
Q: 1/4=78
%%MIDI tuningsystem comma53
d3/2^3/4c/de dcB2  | ^3/4c3d cBA2  | \
w:  ARANAĞME  |   | 
d3/2^3/4c/de dcB2  | ^3/4c3d cBA2  | 
w:   |   | 
d^3/4cde dcB2  | ^3/4c3d cBA2  | e2ed e^3/4cdB  | \
w:   |   |   | 
^3/4cBBA A4  | 
w:   | 
d3/2^3/4c/de dcB2  | ^3/4c3d cBA2  | \
w:  ARANAĞME  |   | 
d3/2^3/4c/de dcB2  | ^3/4c3d cBA2  | 
w:   |   | 
d^3/4cde dcB2  | ^3/4c3d cBA2  | e2ed e^3/4cdB  | \
w:   |   |   | 
^3/4cBBA A4  | 
w:   | 
z2^3/4fg a2a2  | aa3 a2a2  | g2g2 =fed2  | \
w:  Er ki let  gü  |  ze li  bağ lar   |  bo zu yor    | 
g2=fe edd^3/4c  | 
w:  A ma *  nın  *  a  | 
d2e2 ^3/4f2a2  | g2=fe edd^3/4c  | d3g ^3/4fga2  | \
w:  man   |  ben  yan *  dım  *  a  |  man   SAZ  | 
z2^3/4fg a2a2  | 
w:  Kir pik le ri   | 
a2a2 a2a2  | g2g2 =fed2  | z2e=f ed^3/4cB  | \
w:  ka lem _ ol muş   |  ya zı yor   |  ca *  nım   | 
A2AB ^3/4c2BA  | 
w:  *  ca *  nım    | 
.d2.d2 d^3/4cB2  | ^3/4c3d cBA2  | d2d2 d^3/4cB2  | \
w:  Tek  tek  ba *  sa  |  rak *  tan    |  Bâ de  sü *  ze  | 
^3/4c3d cBA2  | d2d2 {^3/4c}dcB2  | 
w:  rek *  ten    |  İn ci  *  di *  ze  | 
^3/4c3d cBA2  | e2ed e^3/4cdB  | ^3/4cBBA A4  | \
w:  rek *  ten    |  Gel  ca *  *  *  nım   |  gel_ a *  *  man    | 
.d2.d2 d^3/4cB2  | 
w:  Tek  tek  ba *  sa  | 
^3/4c3d cBA2  | d2d2 d^3/4cB2  | ^3/4c3d cBA2  | \
w:  rak *  tan    |  Bâ de  sü *  ze  |  rek *  ten    | 
d2d2 {^3/4c}dcB2  | ^3/4c3d cBA2  | 
w:  İn ci  *  di *  ze  |  rek *  ten    | 
e2ed e^3/4cdB  | ^3/4cBBA A4  | d3/2^3/4c/de dcB2  | \
w:  Gel  ca *  *  *  nım   |  gel_ a *  *  man    |  ARANAĞME  | 
^3/4c3d cBA2  | 
w:   | 
d3/2^3/4c/de dcB2  | ^3/4c3d cBA2  | \
w:   |   | 
d^3/4cde dcB2  | ^3/4c3d cBA2  | 
w:   |   | 
e2ed e^3/4cdB  | ^3/4cBBA A4  | d3/2^3/4c/de dcB2  | \
w:   |   |  ARANAĞME  | 
^3/4c3d cBA2  | 
w:   | 
d3/2^3/4c/de dcB2  | ^3/4c3d cBA2  | \
w:   |   | 
d^3/4cde dcB2  | ^3/4c3d cBA2  | 
w:   |   | 
e2ed e^3/4cdB  | ^3/4cBBA A4  | z2^3/4fg a2a2  | \
w:   |   |  Er ki let  gü  | 
aa3 a2a2  | 
w:  ze li  bağ lar   | 
g2g2 =fed2  | g2=fe edd^3/4c  | d2e2 ^3/4f2a2  | \
w:  bo zu yor    |  A ma *  nın  *  a  |  man   | 
g2=fe edd^3/4c  | 
w:  ben  yan *  dım  *  a  | 
d3g ^3/4fga2  | z2^3/4fg a2a2  | a2a2 a2a2  | \
w:  man   SAZ  |  Kir pik le ri   |  ka lem _ ol muş   | 
g2g2 =fed2  | z2e=f ed^3/4cB  | 
w:  ya zı yor   |  ca *  nım   | 
A2AB ^3/4c2BA  | .d2.d2 d^3/4cB2  | ^3/4c3d cBA2  | \
w:  *  ca *  nım    |  Tek  tek  ba *  sa  |  rak *  tan    | 
d2d2 d^3/4cB2  | 
w:  Bâ de  sü *  ze  | 
^3/4c3d cBA2  | d2d2 {^3/4c}dcB2  | ^3/4c3d cBA2  | \
w:  rek *  ten    |  İn ci  *  di *  ze  |  rek *  ten    | 
e2ed e^3/4cdB  | 
w:  Gel  ca *  *  *  nım   | 
^3/4cBBA A4  | .d2.d2 d^3/4cB2  | ^3/4c3d cBA2  | \
w:  gel_ a *  *  man    |  Tek  tek  ba *  sa  |  rak *  tan    | 
d2d2 d^3/4cB2  | ^3/4c3d cBA2  | 
w:  Bâ de  sü *  ze  |  rek *  ten    | 
d2d2 {^3/4c}dcB2  | ^3/4c3d cBA2  | e2ed e^3/4cdB  | \
w:  İn ci  *  di *  ze  |  rek *  ten    |  Gel  ca *  *  *  nım   | 
^3/4cBBA A4  | 
w:  gel_ a *  *  man    | 
|


